TGeo/prim2_pgon_z.svg

<svg viewBox="-600 -400 1200 800" width="1200" height="800" xmlns="http://www.w3.org/2000/svg"><path style="fill:rgb(194,0,194)" d="M76,130l-119,-150l-17,164Z"/><path style="fill:rgb(18,0,18)" d="M162,195l-92,-226l6,161Z"/><path style="fill:rgb(199,0,199)" d="M76,130l-6,-161l-113,11Z"/><path style="fill:rgb(92,0,92)" d="M130,-278l9,-9l-317,22Z"/><path style="fill:rgb(93,0,93)" d="M130,-278l-308,13l20,7Z"/><path style="fill:rgb(80,0,80)" d="M65,-24l65,-254l-288,20Z"/><path style="fill:rgb(0,0,0)" d="M-53,-25l123,-6l5,-6ZM-53,-25l10,5l113,-11Z"/><path style="fill:rgb(172,0,172)" d="M-60,144l17,-164l-26,55Z"/><path style="fill:rgb(68,0,68)" d="M65,-24l-223,-234l125,243Z"/><path style="fill:rgb(194,0,194)" d="M177,195l-37,-180l22,180Z"/><path style="fill:rgb(0,0,0)" d="M125,15l5,-293l-65,254Z"/><path style="fill:rgb(171,0,171)" d="M-60,144l-9,-109l-25,189Z"/><path style="fill:rgb(20,0,20)" d="M162,195l-22,-180l-70,-46Z"/><path style="fill:rgb(0,0,0)" d="M75,-37l-5,6l70,46Z"/><path style="fill:rgb(95,0,95)" d="M329,-186l-190,-101l-9,9Z"/><path style="fill:rgb(198,0,198)" d="M177,195l-21,-180h-16Z"/><path style="fill:rgb(0,0,0)" d="M-84,38l41,-58l-10,-5ZM75,-37l65,52h16ZM125,15l204,-201l-199,-92ZM-84,38l15,-3l26,-55Z"/><path style="fill:rgb(168,0,168)" d="M33,284l-117,-246l-24,189Z"/><path style="fill:rgb(98,0,98)" d="M-158,-258l-20,-7l-108,130Z"/><path style="fill:rgb(99,0,99)" d="M329,-186h33l-223,-101Z"/><path style="fill:rgb(59,0,59)" d="M-33,-15l-125,-243l-94,117Z"/><path style="fill:rgb(206,0,206)" d="M140,15l189,-201l-204,201Z"/><path style="fill:rgb(172,0,172)" d="M33,284l1,-206l-118,-40Z"/><path style="fill:rgb(47,0,47)" d="M-33,-15l-219,-126l197,173Z"/><path style="fill:rgb(0,0,0)" d="M34,78l-103,-43l-15,3Z"/><path style="fill:rgb(210,0,210)" d="M140,15l222,-201h-33Z"/><path style="fill:rgb(0,0,0)" d="M34,78v-8l-103,-35Z"/><path style="fill:rgb(232,0,232)" d="M34,70l-320,-205l217,170Z"/><path style="fill:rgb(103,0,103)" d="M-158,-258l-128,123l34,-6Z"/><path style="fill:rgb(232,0,232)" d="M34,70l6,-107l-326,-98Z"/><path style="fill:rgb(113,0,113)" d="M-252,-141l-34,6l326,98Z"/><path style="fill:rgb(117,0,117)" d="M-252,-141l292,104v-18Z"/></svg>

<svg xmlns="http://www.w3.org/2000/svg" viewBox="-600 -400 1200 800" width="1200" height="800" style="background:rgb(255,255,255)"><path style="fill:rgb(194,0,194)" d="M76,130L-43,-20L-60,144z"/><path style="fill:rgb(18,0,18)" d="M162,195L70,-31L76,130z"/><path style="fill:rgb(199,0,199)" d="M76,130L70,-31L-43,-20z"/><path style="fill:rgb(92,0,92)" d="M130,-278L139,-287L-178,-265z"/><path style="fill:rgb(93,0,93)" d="M130,-278L-178,-265L-158,-258z"/><path style="fill:rgb(80,0,80)" d="M65,-24L130,-278L-158,-258z"/><path style="fill:rgb(0,0,0)" d="M-53,-25L70,-31L75,-37zM-53,-25L-43,-20L70,-31z"/><path style="fill:rgb(172,0,172)" d="M-60,144L-43,-20L-69,35z"/><path style="fill:rgb(68,0,68)" d="M65,-24L-158,-258L-33,-15z"/><path style="fill:rgb(194,0,194)" d="M177,195L140,15L162,195z"/><path style="fill:rgb(0,0,0)" d="M125,15L130,-278L65,-24z"/><path style="fill:rgb(171,0,171)" d="M-60,144L-69,35L-94,224z"/><path style="fill:rgb(20,0,20)" d="M162,195L140,15L70,-31z"/><path style="fill:rgb(0,0,0)" d="M75,-37L70,-31L140,15z"/><path style="fill:rgb(95,0,95)" d="M329,-186L139,-287L130,-278z"/><path style="fill:rgb(198,0,198)" d="M177,195L156,15L140,15z"/><path style="fill:rgb(0,0,0)" d="M-84,38L-43,-20L-53,-25zM75,-37L140,15L156,15zM125,15L329,-186L130,-278zM-84,38L-69,35L-43,-20z"/><path style="fill:rgb(168,0,168)" d="M33,284L-84,38L-108,227z"/><path style="fill:rgb(98,0,98)" d="M-158,-258L-178,-265L-286,-135z"/><path style="fill:rgb(99,0,99)" d="M329,-186L362,-186L139,-287z"/><path style="fill:rgb(59,0,59)" d="M-33,-15L-158,-258L-252,-141z"/><path style="fill:rgb(206,0,206)" d="M140,15L329,-186L125,15z"/><path style="fill:rgb(172,0,172)" d="M33,284L34,78L-84,38z"/><path style="fill:rgb(47,0,47)" d="M-33,-15L-252,-141L-55,32z"/><path style="fill:rgb(0,0,0)" d="M34,78L-69,35L-84,38z"/><path style="fill:rgb(210,0,210)" d="M140,15L362,-186L329,-186z"/><path style="fill:rgb(0,0,0)" d="M34,78L34,70L-69,35z"/><path style="fill:rgb(232,0,232)" d="M34,70L-286,-135L-69,35z"/><path style="fill:rgb(103,0,103)" d="M-158,-258L-286,-135L-252,-141z"/><path style="fill:rgb(232,0,232)" d="M34,70L40,-37L-286,-135z"/><path style="fill:rgb(113,0,113)" d="M-252,-141L-286,-135L40,-37z"/><path style="fill:rgb(117,0,117)" d="M-252,-141L40,-37L40,-55z"/></svg>
